img/whatsapp.svg

<svg width="20" height="20" viewBox="0 0 20 20" xmlns="http://www.w3.org/2000/svg">
<path d="M10.0025 0H9.9975C4.48375 0 0 4.485 0 10C0 12.1875 0.705 14.215 1.90375 15.8612L0.6575 19.5763L4.50125 18.3475C6.0825 19.395 7.96875 20 10.0025 20C15.5162 20 20 15.5138 20 10C20 4.48625 15.5162 0 10.0025 0ZM15.8212 14.1213C15.58 14.8025 14.6225 15.3675 13.8587 15.5325C13.3363 15.6437 12.6537 15.7325 10.3562 14.78C7.4175 13.5625 5.525 10.5763 5.3775 10.3825C5.23625 10.1887 4.19 8.80125 4.19 7.36625C4.19 5.93125 4.91875 5.2325 5.2125 4.9325C5.45375 4.68625 5.8525 4.57375 6.235 4.57375C6.35875 4.57375 6.47 4.58 6.57 4.585C6.86375 4.5975 7.01125 4.615 7.205 5.07875C7.44625 5.66 8.03375 7.095 8.10375 7.2425C8.175 7.39 8.24625 7.59 8.14625 7.78375C8.0525 7.98375 7.97 8.0725 7.8225 8.2425C7.675 8.4125 7.535 8.5425 7.3875 8.725C7.2525 8.88375 7.1 9.05375 7.27 9.3475C7.44 9.635 8.0275 10.5937 8.8925 11.3637C10.0087 12.3575 10.9137 12.675 11.2375 12.81C11.4787 12.91 11.7662 12.8863 11.9425 12.6988C12.1663 12.4575 12.4425 12.0575 12.7238 11.6638C12.9237 11.3813 13.1763 11.3462 13.4412 11.4462C13.7113 11.54 15.14 12.2462 15.4338 12.3925C15.7275 12.54 15.9212 12.61 15.9925 12.7338C16.0625 12.8575 16.0625 13.4388 15.8212 14.1213Z" />
</svg>

<svg width="20" height="20" xmlns="http://www.w3.org/2000/svg"><path d="M10.002 0h-.005C4.485 0 0 4.485 0 10c0 2.188.705 4.215 1.904 5.861L.658 19.576 4.5 18.347A9.913 9.913 0 0010.002 20C15.517 20 20 15.514 20 10S15.516 0 10.002 0zm5.82 14.121c-.242.681-1.2 1.246-1.963 1.412-.523.11-1.205.2-3.503-.753-2.938-1.217-4.831-4.204-4.978-4.397C5.236 10.188 4.19 8.8 4.19 7.366c0-1.435.729-2.133 1.022-2.433.242-.247.64-.36 1.023-.36.124 0 .235.007.335.012.294.013.441.03.635.494.241.581.829 2.016.899 2.163.071.148.142.348.042.542-.094.2-.176.288-.324.458-.147.17-.287.3-.434.483-.135.159-.288.329-.118.623.17.287.758 1.246 1.623 2.016 1.116.993 2.02 1.311 2.345 1.446.24.1.528.076.705-.111.223-.242.5-.642.78-1.035.2-.283.453-.318.718-.218.27.094 1.699.8 1.993.947.293.147.487.217.559.34.07.124.07.706-.172 1.388z"/></svg>
